StripePaymentSheet/StripePaymentSheet/Resources/StripePaymentSheet.xcassets/Carousel/carousel_card_cartes_bancaires.imageset/cartesBancairesLight.svg

<svg fill="none" height="40" viewBox="0 0 56 40" width="56" xmlns="http://www.w3.org/2000/svg" xmlns:xlink="http://www.w3.org/1999/xlink"><linearGradient id="a" gradientUnits="userSpaceOnUse" x1="41.5" x2="23.6934" y1="7" y2="39.8045"><stop offset="0" stop-color="#002253"/><stop offset=".427311" stop-color="#0082b1"/><stop offset=".554805" stop-color="#2f92a8"/><stop offset="1" stop-color="#0e9641"/></linearGradient><clipPath id="b"><path d="m10 7h36v26h-36z"/></clipPath><g clip-path="url(#b)"><path d="m46 7h-36v26h36z" fill="#fff"/><path d="m11.2177 8.22705h33.5643v23.544h-33.5643z" fill="url(#a)"/><g fill="#fff"><path d="m41.3839 16.9111c0-.3854-.0747-.7707-.2242-1.1434-.1433-.3537-.3613-.6695-.6416-.9412-.3115-.3032-.6479-.5116-1.0217-.6317-.3675-.12-.8721-.1768-1.5137-.1768h-8.5655v2.8994 2.8994h8.5717c.6354 0 1.14-.0568 1.5138-.1769.3675-.12.7101-.3284 1.0216-.6316.2803-.2717.4921-.5875.6416-.9412.1433-.3854.218-.7707.218-1.156z"/><path d="m41.3839 23.4869c0-.3917-.0747-.7707-.2242-1.1434-.1433-.3537-.3613-.6695-.6416-.9412-.3115-.3032-.6479-.5116-1.0217-.6316-.3675-.1201-.8721-.1832-1.5137-.1832h-8.5655v2.9057 2.9057h8.5717c.6354 0 1.14-.0631 1.5138-.1832.3675-.12.7101-.3347 1.0216-.6316.2803-.2717.4921-.5875.6416-.9476.1433-.379.218-.758.218-1.1496z"/><path d="m28.6448 19.8105c-.1745-3.7459-2.8282-6.1652-7.0082-6.1652-4.317 0-7.0206 2.5899-7.0206 6.5632 0 4.0996 2.8157 6.5631 7.0206 6.5631 4.2111 0 6.8462-2.432 7.0082-6.1841h-6.7901v-.7707h6.7901z"/></g></g></svg>

<svg width="56" height="40" viewBox="0 0 56 40" fill="none" xmlns="http://www.w3.org/2000/svg">
<g clip-path="url(#clip0_33_278)">
<path d="M46 7H10V33H46V7Z" fill="white"/>
<rect x="11.2177" y="8.22705" width="33.5643" height="23.544" fill="url(#paint0_linear_33_278)"/>
<path d="M41.3839 16.9111C41.3839 16.5257 41.3092 16.1404 41.1597 15.7677C41.0164 15.414 40.7984 15.0982 40.5181 14.8265C40.2066 14.5233 39.8702 14.3149 39.4964 14.1948C39.1289 14.0748 38.6243 14.018 37.9827 14.018H29.4172V16.9174V19.8168H37.9889C38.6243 19.8168 39.1289 19.76 39.5027 19.6399C39.8702 19.5199 40.2128 19.3115 40.5243 19.0083C40.8046 18.7366 41.0164 18.4208 41.1659 18.0671C41.3092 17.6817 41.3839 17.2964 41.3839 16.9111Z" fill="white"/>
<path d="M41.3839 23.4869C41.3839 23.0952 41.3092 22.7162 41.1597 22.3435C41.0164 21.9898 40.7984 21.674 40.5181 21.4023C40.2066 21.0991 39.8702 20.8907 39.4964 20.7707C39.1289 20.6506 38.6243 20.5875 37.9827 20.5875H29.4172V23.4932V26.3989H37.9889C38.6243 26.3989 39.1289 26.3358 39.5027 26.2157C39.8702 26.0957 40.2128 25.881 40.5243 25.5841C40.8046 25.3124 41.0164 24.9966 41.1659 24.6365C41.3092 24.2575 41.3839 23.8785 41.3839 23.4869Z" fill="white"/>
<path d="M28.6448 19.8105C28.4703 16.0646 25.8166 13.6453 21.6366 13.6453C17.3196 13.6453 14.616 16.2352 14.616 20.2085C14.616 24.3081 17.4317 26.7716 21.6366 26.7716C25.8477 26.7716 28.4828 24.3396 28.6448 20.5875H21.8547V19.8168H28.6448V19.8105Z" fill="white"/>
</g>
<defs>
<linearGradient id="paint0_linear_33_278" x1="41.5" y1="7" x2="23.6934" y2="39.8045" gradientUnits="userSpaceOnUse">
<stop stop-color="#002253"/>
<stop offset="0.427311" stop-color="#0082B1"/>
<stop offset="0.554805" stop-color="#2F92A8"/>
<stop offset="1" stop-color="#0E9641"/>
</linearGradient>
<clipPath id="clip0_33_278">
<rect width="36" height="26" fill="white" transform="translate(10 7)"/>
</clipPath>
</defs>
</svg>
